images/Exercism_files/ukraine-ddee71b9968c24f6ffad2d0967fe8f39d2d00dd8.svg

<svg fill="none" height="24" viewBox="0 0 24 24" width="24" xmlns="http://www.w3.org/2000/svg" xmlns:xlink="http://www.w3.org/1999/xlink"><linearGradient id="a" gradientUnits="userSpaceOnUse" x1="12" x2="12" y1="1" y2="23"><stop offset="0" stop-color="#0057b8"/><stop offset=".494792" stop-color="#0057b8"/><stop offset=".494892" stop-color="#ffd700"/><stop offset="1" stop-color="#ffd700"/></linearGradient><path d="m12.001 23-10.22834-11.1788c-.898098-.9407-1.490908-2.15353-1.6944422-3.46678-.2035348-1.31325-.007473-2.6603.5604082-3.85032.428974-.89845 1.055584-1.67727 1.828184-2.27227.77261-.595 1.66911-.98915 2.61564-1.14999.94652-.160841 1.91598-.083755 2.82849.2249.91251.30866 1.74196.84005 2.41996 1.5504l1.6701 1.74964 1.6701-1.74964c.6778-.71036 1.5071-1.24177 2.4195-1.55044.9123-.308663 1.8817-.385749 2.828-.2249.9464.16085 1.8428.55503 2.6152 1.15004.7724.59502 1.3988 1.37384 1.8276 2.27226.5679 1.19002.7639 2.53707.5604 3.85032-.2036 1.31325-.7964 2.52608-1.6945 3.46678z" fill="url(#a)"/></svg>

<svg width="24" height="24" viewBox="0 0 24 24" fill="none" xmlns="http://www.w3.org/2000/svg">
<path d="M12.001 23L1.77266 11.8212C0.874562 10.8805 0.281752 9.66767 0.0782178 8.35442C-0.125317 7.04117 0.0707448 5.69412 0.638626 4.5041V4.5041C1.0676 3.60565 1.69421 2.82683 2.46681 2.23183C3.23942 1.63683 4.13592 1.24268 5.08245 1.08184C6.02897 0.920999 6.99843 0.998085 7.91094 1.30674C8.82345 1.6154 9.6529 2.14679 10.3309 2.85714L12.001 4.60678L13.6711 2.85714C14.3489 2.14678 15.1782 1.61537 16.0906 1.3067C17.0029 0.998037 17.9723 0.920951 18.9186 1.0818C19.865 1.24265 20.7614 1.63683 21.5338 2.23184C22.3062 2.82686 22.9326 3.60568 23.3614 4.5041C23.9293 5.69412 24.1253 7.04117 23.9218 8.35442C23.7182 9.66767 23.1254 10.8805 22.2273 11.8212L12.001 23Z" fill="url(#paint0_linear_1079_23561)"/>
<defs>
<linearGradient id="paint0_linear_1079_23561" x1="12" y1="1" x2="12" y2="23" gradientUnits="userSpaceOnUse">
<stop stop-color="#0057B8"/>
<stop offset="0.494792" stop-color="#0057B8"/>
<stop offset="0.494892" stop-color="#FFD700"/>
<stop offset="1" stop-color="#FFD700"/>
</linearGradient>
</defs>
</svg>
